X: 1
P: G\"oteborsk masurka
S: Bruce Sagan
M: 3/4
L: 1/8
K: G
|: "G"d>B G2 B2 \
| "Am"d>B c2 e2 \
|1,3 "D7"f>g a3 g \
| f>e d4 \
:|2,4 "D7"f>g a3 f \
| "G"g2 g4 :|
|: "C"g2 f2 e2 \
| "G"d>B GB dB \
|1,3 "D7"c>A FA c>A \
| "G"G>A Bc d2 \
:|2,4 "D7"c>A FA d>F \
| "G"G2 G4 :|
|: "G"D2 G2 B2 \
| G2 B2 d2 \
|1,3 "D7"f>g a3 g \
| f>e d4 \
:|2,4 "D7"f>g a3 f \
| "G"g2 g4 :|
